X:1
T:Perfectness, 87.87 D
T:Perfectness, 87.87 D
T:Barney Elliott Warren, 1893
T:Public Domain Courtesy of the Cyber Hymnal™
C:Barney Elliott Warren, 1893
Z:Public Domain
Z:Courtesy of the Cyber Hymnal™
%%score ( 1 2 ) ( 3 4 )
L:1/8
Q:1/4=105
M:6/8
K:Eb
V:1 treble 
V:2 treble 
V:3 bass 
V:4 bass 
V:1
 [GB] | [GB]2 [Ac] [GB]2 [EG] | E2 [EF] [EG]2 [GB] | [GB]2 [EG] E2 [EG] | [EG] [DF]4 [AB] | %5
 [GB]2 [Ge] [Ge]2 [Ac] | [GB]2 [GB] E2 [EF] | [EG]2 [EB] [DA]2 [DF] | [DF] E4 [Ge] | %9
 [Ad]2 [Ac] [AB]2 [AB] | [Ac]2 [GB] [Ge]2 E | [DF]2 [EG] [DA]2 [FB] | [Ac]3 [GB]2 [GB] | %13
 [GB]2 [Ac] [GB]2 [EG] | E2 [DF] [EG]2 [Ec] | [EB]2 [EB] [DA]2 [DF] | [DF] E4 |] %17
V:2
 x | x6 | E2 x4 | x3 E2 x | x6 | x6 | x3 E2 x | x6 | x E4 x | x6 | x5 E | x6 | x6 | x6 | E2 x4 | %15
 x6 | x E4 |] %17
V:3
 [E,B,] | [E,B,]2 [E,B,] [E,B,]2 [E,B,] | [E,G,]2 [E,A,] [E,B,]2 [E,E] | %3
 [E,E]2 [E,B,] [E,G,]2 [E,B,] | [B,,B,] [B,,B,]4 [B,,D] | [E,E]2 [E,B,] [E,B,]2 [E,E] | %6
 [E,E]2 [E,B,] [G,B,]2 [A,C] | B,2 [G,B,] [F,A,]2 [B,,A,] | [B,,A,] [E,G,]4 [E,B,] | %9
 [F,B,]2 [F,B,] [B,,D]2 [B,,D] | [E,E]2 [E,E] [E,B,]2 [C,=A,] | [B,,B,]2 [B,,B,] [B,,B,]2 [B,,D] | %12
 [E,E]3 [E,E]2 [E,E] | [E,E]2 [E,E] [E,E]2 [E,B,] | [G,B,]2 [F,B,] [E,B,]2 [C,A,] | %15
 [B,,G,]2 [B,,G,] [B,,F,]2 [B,,A,] | [B,,A,] [E,G,]4 |] %17
V:4
 x | x6 | x6 | x6 | x6 | x6 | x6 | B,2 x4 | x6 | x6 | x6 | x6 | x6 | x6 | x6 | x6 | x5 |] %17

